images/EXPERIENCIA-TOGGLE/CEGID ICON.svg

<svg width="27" height="36" viewBox="0 0 27 36" fill="none" xmlns="http://www.w3.org/2000/svg">
<path d="M13.5024 26.5013V23.1018M13.5024 23.1018C14.0874 23.1018 14.662 22.9446 15.1686 22.6463C15.6752 22.348 16.0959 21.9189 16.3884 21.4021M13.5024 23.1018C12.9174 23.1018 12.3428 22.9446 11.8362 22.6463C11.3296 22.348 10.9089 21.9189 10.6164 21.4021M17.6685 30.7507H9.3371M17.6685 30.7507C17.6685 29.5388 17.6685 28.932 17.7319 28.5292C17.9368 27.2323 17.9718 27.149 18.7833 26.1292C19.0349 25.813 19.968 24.9598 21.8359 23.2532C23.1475 22.0589 24.1966 20.595 24.9143 18.9578C25.6319 17.3205 26.0019 15.547 26 13.7535C26.002 12.3061 25.7614 10.8689 25.2885 9.50423M17.6685 30.7507C17.6685 32.3399 17.6685 33.1337 17.3336 33.7252C17.1143 34.1128 16.7988 34.4346 16.4188 34.6584C15.839 35 15.0608 35 13.5028 35C11.9448 35 11.1667 35 10.5868 34.6584C10.2069 34.4346 9.89139 34.1128 9.67203 33.7252C9.3371 33.1337 9.3371 32.3399 9.3371 30.7507M9.3371 30.7507C9.3371 29.5388 9.3371 28.932 9.27378 28.5292C9.06883 27.2323 9.03384 27.149 8.22236 26.1292C7.97075 25.813 7.03596 24.9598 5.16972 23.2532C2.86429 21.1516 1.40445 18.2529 1.07233 15.1172C0.740221 11.9816 1.55942 8.83165 3.37159 6.27626C5.18377 3.72087 7.86026 1.94144 10.8838 1.28189C13.9073 0.622341 17.0631 1.1295 19.7414 2.70535" stroke="white" stroke-linecap="round"/>
</svg>

<svg width="27" height="36" fill="none" xmlns="http://www.w3.org/2000/svg"><path d="M13.502 26.501v-3.4m0 0c.585 0 1.16-.156 1.667-.455a3.366 3.366 0 0 0 1.22-1.244m-2.887 1.7c-.585 0-1.16-.157-1.666-.456a3.366 3.366 0 0 1-1.22-1.244m7.053 9.349H9.337m8.332 0c0-1.212 0-1.819.063-2.222.205-1.297.24-1.38 1.051-2.4.252-.316 1.185-1.17 3.053-2.876a12.706 12.706 0 0 0 3.078-4.295A12.934 12.934 0 0 0 26 13.754a12.926 12.926 0 0 0-.712-4.25m-7.62 21.247c0 1.589 0 2.383-.334 2.974-.22.388-.535.71-.915.933-.58.342-1.358.342-2.916.342-1.558 0-2.336 0-2.916-.342a2.525 2.525 0 0 1-.915-.933c-.335-.591-.335-1.385-.335-2.974m0 0c0-1.212 0-1.819-.063-2.222-.205-1.297-.24-1.38-1.052-2.4-.251-.316-1.186-1.17-3.052-2.876a12.835 12.835 0 0 1-4.098-8.136 12.94 12.94 0 0 1 2.3-8.84 12.48 12.48 0 0 1 7.512-4.995c3.023-.66 6.18-.153 8.857 1.423" stroke="#fff" stroke-linecap="round"/></svg>
